source/img/icon/sprite.svg

<svg xmlns="http://www.w3.org/2000/svg">
  <symbol viewBox="0 0 24 18" id="compare-slider-triangles">
    <path d="M8 0 0 9l8 9V0ZM24 9l-8-9v18l8-9Z"/>
  </symbol>
  <symbol viewBox="0 0 129 24" id="logo-image">
    <path d="M2.1 22.05a9.5 9.5 0 0 1-1.6-5.74V7.79A9.63 9.63 0 0 1 2 1.95C3.1.62 4.8 0 7.31 0c2.5 0 4.1.62 5.1 1.74a7.49 7.49 0 0 1 1.51 5.03v2.05h-4.9V6.46c.03-.7-.07-1.4-.3-2.05a1.46 1.46 0 0 0-.59-.63 1.41 1.41 0 0 0-.82-.19c-.7 0-1.2.2-1.4.72-.23.73-.33 1.49-.3 2.25v10.98c-.05.74.08 1.48.4 2.15.2.52.7.72 1.4.72s1.1-.2 1.3-.72c.23-.7.33-1.42.3-2.15v-2.46h4.91v2.05a7.98 7.98 0 0 1-1.5 5.13c-1 1.23-2.7 1.84-5.1 1.84-2.41-.1-4.22-.72-5.22-2.05ZM19.83.3h5.7l4.22 23.4h-4.61l-.8-4.93h-3.3l-.8 4.92h-4.72L19.83.31Zm4.1 15.4-1.2-9.14-1.2 9.13h2.4ZM33.25 4.2h-3.4V.3h11.91v3.8h-3.4v19.6h-5.1V4.2ZM50.88.3h8.81v2.47H54v7.7h4.6v2.35H54v8.62h5.7v2.35h-8.91V.31h.1ZM62.3.3h2.2l6.51 15.5V.3h2.6v23.4h-2l-6.6-16v16H62.3V.3ZM76.62.3h8.81v2.47h-5.7v7.7h4.6v2.35h-4.6v8.62h5.7v2.35h-8.81V.31ZM88.04.3h4.6a7.87 7.87 0 0 1 5.11 1.44c1.1.93 1.6 2.57 1.6 4.72 0 2.98-.9 4.82-2.8 5.44l3.2 11.69h-3.1l-3-10.97h-2.5v10.97h-3.21V.31h.1Zm4.4 10.06a4.3 4.3 0 0 0 2.9-.82c.6-.51.91-1.54.91-3.08a6.77 6.77 0 0 0-.3-2.25 2.58 2.58 0 0 0-1.1-1.24 4.47 4.47 0 0 0-2.2-.4h-1.4v7.69h1.2v.1ZM103.36 21.95a10.57 10.57 0 0 1-1.4-5.95V8.2c-.03-1.48.14-2.96.5-4.4a5.2 5.2 0 0 1 1.9-2.67c1.12-.68 2.41-1 3.7-.92 2.11 0 3.61.5 4.52 1.64a7.98 7.98 0 0 1 1.4 5.12v.82h-3v-.71c0-.86-.07-1.72-.2-2.57a2.06 2.06 0 0 0-.8-1.33 3.04 3.04 0 0 0-1.91-.51 2.96 2.96 0 0 0-2 .61 2.3 2.3 0 0 0-.8 1.64c-.14.92-.2 1.85-.2 2.77v8.72a9.53 9.53 0 0 0 .6 3.9c.4.82 1.2 1.13 2.4 1.13a2.37 2.37 0 0 0 2.4-1.23c.53-1.3.77-2.7.7-4.1v-1.65h-2.9V12.1h5.8v11.6h-2l-.3-2.67c-.26.89-.8 1.67-1.55 2.2-.74.55-1.64.81-2.55.77a4.9 4.9 0 0 1-4.3-2.05ZM120.49 15.49 115.58.4h3l3.51 11.28 3.4-11.28h3.01l-4.9 15.08v8.2h-3.01v-8.2h-.1Z"/>
  </symbol>
  <symbol viewBox="0 0 29 22" id="socials-icon-vkontakte">
    <g clip-path="url(#a)">
      <path d="M1.5 5.34c0-.86.52-1.32 1.55-1.38l3.97.02c.26 0 .44.13.53.38.4 1.26.86 2.34 1.37 3.25.5.92 1.17 1.97 1.99 3.16.07.15.18.23.34.23.13 0 .22-.06.3-.18l.07-.28.03-4.35c0-.3-.07-.5-.23-.6-.15-.1-.43-.18-.83-.23-.32-.05-.48-.23-.48-.55 0-.07 0-.12.02-.15.38-1.09 1.44-1.63 3.2-1.63l1.5-.03c.67 0 1.23.16 1.67.48.44.32.67.82.67 1.5v5.72c.12.08.24.12.34.12.27 0 .5-.15.7-.45 1.95-2.58 3-4.31 3.17-5.18 0-.02.01-.06.05-.13.12-.25.33-.47.61-.65.29-.19.53-.31.75-.38a.55.55 0 0 1 .24-.05h4.13l.26.03c.36 0 .63.16.83.47.07.1.12.21.15.33a2.4 2.4 0 0 1 .06.55v.18a6.11 6.11 0 0 1-.94 2.2c-.5.78-1.15 1.62-1.93 2.53-.79.9-1.27 1.5-1.47 1.78-.16.2-.24.39-.24.56 0 .13.07.28.21.45l3.9 4.63c.2.26.31.56.31.88 0 .38-.16.7-.48.95-.32.25-.7.4-1.14.43l-.46.02h-4.04c-.02 0-.06 0-.11.02a.86.86 0 0 1-.1.01c-.4 0-.76-.16-1.1-.48-.12-.13-.96-1.12-2.5-2.97a1.39 1.39 0 0 0-.38-.32 38.47 38.47 0 0 0-.53 2.24l-.08.42a1.4 1.4 0 0 1-1.12 1.06l-.37.02h-2.61c-1.48 0-2.95-.63-4.41-1.9a19.3 19.3 0 0 1-3.96-4.95 47.51 47.51 0 0 1-3.28-7.05 1.92 1.92 0 0 1-.13-.73Zm16.01 6.51c-.37 0-.7-.1-1.01-.29a.9.9 0 0 1-.45-.79V5c0-.34-.1-.58-.27-.72-.18-.14-.49-.21-.93-.21l-1.52.05c-.76 0-1.34.12-1.73.37.78.36 1.17.93 1.17 1.71v4.43a1.5 1.5 0 0 1-.53 1.04c-.32.28-.68.42-1.07.42-.53 0-.94-.24-1.22-.73a26.16 26.16 0 0 1-3.1-5.63l-.23-.66-3.55-.02c-.23 0-.36.01-.38.03-.03.03-.04.1-.04.22 0 .15.01.3.05.48l.56 1.4c1.49 3.64 3.11 6.51 4.86 8.6 1.75 2.1 3.47 3.15 5.16 3.15h2.66c.1 0 .19-.03.24-.09.05-.06.1-.17.13-.34l.06-.25.5-2.21c.15-.3.27-.5.38-.6.2-.2.42-.28.69-.28.43 0 .86.24 1.3.73l2.27 2.71c.14.22.3.33.45.33h4.4c.53 0 .8-.13.8-.38a.47.47 0 0 0-.08-.25l-3.87-4.55c-.3-.35-.45-.73-.45-1.13 0-.4.14-.8.43-1.16.23-.34.68-.9 1.34-1.67.67-.78 1.25-1.51 1.75-2.19.5-.68.82-1.3.98-1.85l.08-.33a.37.37 0 0 1-.02-.16c0-.07-.01-.14-.03-.19h-4.18c-.27.1-.48.25-.64.45L22.3 6c-.45 1.16-1.6 2.94-3.5 5.36-.36.33-.8.5-1.3.5Z"/>
    </g>
    <defs><clipPath><path fill="#fff" d="M.5 0h28v22H.5z"/></clipPath></defs>
  </symbol>
  <symbol viewBox="0 0 29 22" id="socials-icon-youtube">
    <path d="m18.35 10.8-5.24-3.5a.65.65 0 0 0-1.01.55v6.98a.65.65 0 0 0 1.01.54l5.24-3.49a.65.65 0 0 0 0-1.09Zm-4.94 2.8V9.08l3.4 2.27-3.4 2.27Zm12.48-8.56a2.4 2.4 0 0 0-1.45-1.63C20.72 1.98 14.75 2 14.5 2s-6.22-.02-9.94 1.4a2.4 2.4 0 0 0-1.45 1.64 25.32 25.32 0 0 0-.61 6.3c0 3.26.33 5.22.61 6.3a2.4 2.4 0 0 0 1.45 1.63c3.72 1.43 9.69 1.4 9.94 1.4h.08c.75 0 6.31-.04 9.86-1.4a2.4 2.4 0 0 0 1.45-1.64c.28-1.07.61-3.03.61-6.3 0-3.25-.33-5.22-.61-6.29Zm-1.27 12.27a1.1 1.1 0 0 1-.65.74c-3.5 1.34-9.4 1.32-9.47 1.32-.07 0-5.98.02-9.47-1.32a1.09 1.09 0 0 1-.65-.74c-.27-1-.57-2.85-.57-5.97 0-3.12.3-4.97.57-5.97a1.1 1.1 0 0 1 .65-.74c3.5-1.34 9.4-1.32 9.47-1.32.07 0 5.98-.02 9.47 1.32a1.1 1.1 0 0 1 .65.74c.27 1 .57 2.85.57 5.97 0 3.12-.3 4.96-.57 5.97Z"/>
  </symbol>
  <symbol viewBox="0 0 29 22" id="socials-icon-telegram">
    <path fill-rule="evenodd" d="M23.96 3.15c.18.15.27.38.23.61l-2.63 15.76a.66.66 0 0 1-1.01.44l-7.88-5.25a.66.66 0 0 1-.15-.96l2.61-3.26-4.36 2.9a.66.66 0 0 1-.65.05L4.86 10.8a.66.66 0 0 1 .08-1.2l18.38-6.57a.66.66 0 0 1 .64.11ZM6.83 10.32l3.53 1.77 7.56-5.04a.66.66 0 0 1 .88.96L14 14l6.43 4.3 2.28-13.66-15.88 5.67Z" clip-rule="evenodd"/>
  </symbol>
  <symbol viewBox="0 0 27 34" id="html-academy-icon">
    <g clip-path="url(#a)">
      <path d="M13.64.02 13.5 0 0 1.4v24.61L13.5 34 27 26.01V1.41L13.64 0Zm11.6 25L13.5 31.96 1.77 25.02v-10.1l11.68 6.93.02 1.25-8.02-4.75v1.23l8.04 4.8.02 1.3-8.05-4.76v1.22l8.04 4.81 8.12-4.83V16.9l3.62-2.15v10.26Zm0-11.57L22 15.33l-1.48.88-7.06-4.19-.01 1.23 6.04 3.57-.06.03-.13.07-.86.5-4.98-2.95-.01 1.22 3.93 2.33-.93.61-.02.01-2.97-1.74-.01 1.23 1.94 1.13-1.98 1.19L1.8 13.58l11.63-6.96 11.8 6.83Zm0-1.22L13.43 5.3 1.77 12.22V2.99L13.5 1.76 25.23 3v9.24Z"/>
    </g>
    <defs><clipPath><path fill="#fff" d="M0 0h27v34H0z"/></clipPath></defs>
  </symbol>
  <symbol viewBox="0 0 20 20" id="email-icon" fill="none">
    <path d="M1.5 8.5v8h17v-8m-17-5h17v2l-8.5 6-8.5-6v-2Z" stroke-linecap="round" stroke-linejoin="round"/>
  </symbol>
  <symbol viewBox="0 0 20 20" id="phone-icon" fill="none">
    <path d="M10 10h8.5m0 0L16 7.5m2.5 2.5L16 12.5m-7.5-10v5h-3v5h3v5H6c-1.5 0-2.5-1-2.5-2.5V5c0-1.5 1-2.5 2.5-2.5h2.5Z" stroke-linecap="round" stroke-linejoin="round"/>
  </symbol>
</svg>

<svg xmlns="http://www.w3.org/2000/svg">
  <style>:root svg:not(:target) {display:none}</style>
  <svg viewBox="0 0 24 18" id="triangles">
    <path d="M8 0 0 9l8 9V0ZM24 9l-8-9v18l8-9Z"/>
  </svg>
  <svg viewBox="0 0 29 22" id="vkontakte">
    <g clip-path="url(#a)">
      <path d="M1.5 5.34c0-.86.52-1.32 1.55-1.38l3.97.02c.26 0 .44.13.53.38.4 1.26.86 2.34 1.37 3.25.5.92 1.17 1.97 1.99 3.16.07.15.18.23.34.23.13 0 .22-.06.3-.18l.07-.28.03-4.35c0-.3-.07-.5-.23-.6-.15-.1-.43-.18-.83-.23-.32-.05-.48-.23-.48-.55 0-.07 0-.12.02-.15.38-1.09 1.44-1.63 3.2-1.63l1.5-.03c.67 0 1.23.16 1.67.48.44.32.67.82.67 1.5v5.72c.12.08.24.12.34.12.27 0 .5-.15.7-.45 1.95-2.58 3-4.31 3.17-5.18 0-.02.01-.06.05-.13.12-.25.33-.47.61-.65.29-.19.53-.31.75-.38a.55.55 0 0 1 .24-.05h4.13l.26.03c.36 0 .63.16.83.47.07.1.12.21.15.33a2.4 2.4 0 0 1 .06.55v.18a6.11 6.11 0 0 1-.94 2.2c-.5.78-1.15 1.62-1.93 2.53-.79.9-1.27 1.5-1.47 1.78-.16.2-.24.39-.24.56 0 .13.07.28.21.45l3.9 4.63c.2.26.31.56.31.88 0 .38-.16.7-.48.95-.32.25-.7.4-1.14.43l-.46.02h-4.04c-.02 0-.06 0-.11.02a.86.86 0 0 1-.1.01c-.4 0-.76-.16-1.1-.48-.12-.13-.96-1.12-2.5-2.97a1.39 1.39 0 0 0-.38-.32 38.47 38.47 0 0 0-.53 2.24l-.08.42a1.4 1.4 0 0 1-1.12 1.06l-.37.02h-2.61c-1.48 0-2.95-.63-4.41-1.9a19.3 19.3 0 0 1-3.96-4.95 47.51 47.51 0 0 1-3.28-7.05 1.92 1.92 0 0 1-.13-.73Zm16.01 6.51c-.37 0-.7-.1-1.01-.29a.9.9 0 0 1-.45-.79V5c0-.34-.1-.58-.27-.72-.18-.14-.49-.21-.93-.21l-1.52.05c-.76 0-1.34.12-1.73.37.78.36 1.17.93 1.17 1.71v4.43a1.5 1.5 0 0 1-.53 1.04c-.32.28-.68.42-1.07.42-.53 0-.94-.24-1.22-.73a26.16 26.16 0 0 1-3.1-5.63l-.23-.66-3.55-.02c-.23 0-.36.01-.38.03-.03.03-.04.1-.04.22 0 .15.01.3.05.48l.56 1.4c1.49 3.64 3.11 6.51 4.86 8.6 1.75 2.1 3.47 3.15 5.16 3.15h2.66c.1 0 .19-.03.24-.09.05-.06.1-.17.13-.34l.06-.25.5-2.21c.15-.3.27-.5.38-.6.2-.2.42-.28.69-.28.43 0 .86.24 1.3.73l2.27 2.71c.14.22.3.33.45.33h4.4c.53 0 .8-.13.8-.38a.47.47 0 0 0-.08-.25l-3.87-4.55c-.3-.35-.45-.73-.45-1.13 0-.4.14-.8.43-1.16.23-.34.68-.9 1.34-1.67.67-.78 1.25-1.51 1.75-2.19.5-.68.82-1.3.98-1.85l.08-.33a.37.37 0 0 1-.02-.16c0-.07-.01-.14-.03-.19h-4.18c-.27.1-.48.25-.64.45L22.3 6c-.45 1.16-1.6 2.94-3.5 5.36-.36.33-.8.5-1.3.5Z"/>
    </g>
    <defs><clipPath><path fill="#fff" d="M.5 0h28v22H.5z"/></clipPath></defs>
  </svg>
  <svg viewBox="0 0 29 22" id="youtube">
    <path d="m18.35 10.8-5.24-3.5a.65.65 0 0 0-1.01.55v6.98a.65.65 0 0 0 1.01.54l5.24-3.49a.65.65 0 0 0 0-1.09Zm-4.94 2.8V9.08l3.4 2.27-3.4 2.27Zm12.48-8.56a2.4 2.4 0 0 0-1.45-1.63C20.72 1.98 14.75 2 14.5 2s-6.22-.02-9.94 1.4a2.4 2.4 0 0 0-1.45 1.64 25.32 25.32 0 0 0-.61 6.3c0 3.26.33 5.22.61 6.3a2.4 2.4 0 0 0 1.45 1.63c3.72 1.43 9.69 1.4 9.94 1.4h.08c.75 0 6.31-.04 9.86-1.4a2.4 2.4 0 0 0 1.45-1.64c.28-1.07.61-3.03.61-6.3 0-3.25-.33-5.22-.61-6.29Zm-1.27 12.27a1.1 1.1 0 0 1-.65.74c-3.5 1.34-9.4 1.32-9.47 1.32-.07 0-5.98.02-9.47-1.32a1.09 1.09 0 0 1-.65-.74c-.27-1-.57-2.85-.57-5.97 0-3.12.3-4.97.57-5.97a1.1 1.1 0 0 1 .65-.74c3.5-1.34 9.4-1.32 9.47-1.32.07 0 5.98-.02 9.47 1.32a1.1 1.1 0 0 1 .65.74c.27 1 .57 2.85.57 5.97 0 3.12-.3 4.96-.57 5.97Z"/>
  </svg>
  <svg viewBox="0 0 29 22" id="telegram">
    <path fill-rule="evenodd" d="M23.96 3.15c.18.15.27.38.23.61l-2.63 15.76a.66.66 0 0 1-1.01.44l-7.88-5.25a.66.66 0 0 1-.15-.96l2.61-3.26-4.36 2.9a.66.66 0 0 1-.65.05L4.86 10.8a.66.66 0 0 1 .08-1.2l18.38-6.57a.66.66 0 0 1 .64.11ZM6.83 10.32l3.53 1.77 7.56-5.04a.66.66 0 0 1 .88.96L14 14l6.43 4.3 2.28-13.66-15.88 5.67Z" clip-rule="evenodd"/>
  </svg>
  <svg viewBox="0 0 27 34" id="html-academy">
    <g clip-path="url(#a)">
      <path d="M13.64.02 13.5 0 0 1.4v24.61L13.5 34 27 26.01V1.41L13.64 0Zm11.6 25L13.5 31.96 1.77 25.02v-10.1l11.68 6.93.02 1.25-8.02-4.75v1.23l8.04 4.8.02 1.3-8.05-4.76v1.22l8.04 4.81 8.12-4.83V16.9l3.62-2.15v10.26Zm0-11.57L22 15.33l-1.48.88-7.06-4.19-.01 1.23 6.04 3.57-.06.03-.13.07-.86.5-4.98-2.95-.01 1.22 3.93 2.33-.93.61-.02.01-2.97-1.74-.01 1.23 1.94 1.13-1.98 1.19L1.8 13.58l11.63-6.96 11.8 6.83Zm0-1.22L13.43 5.3 1.77 12.22V2.99L13.5 1.76 25.23 3v9.24Z"/>
    </g>
    <defs><clipPath><path fill="#fff" d="M0 0h27v34H0z"/></clipPath></defs>
  </svg>
  <svg viewBox="0 0 20 20" id="email" fill="none">
    <path d="M1.5 8.5V16.5H18.5V8.5M1.5 3.5H18.5V5.5L10 11.5L1.5 5.5V3.5Z" stroke="black" stroke-linecap="round" stroke-linejoin="round"/>
  </svg>
  <svg viewBox="0 0 20 20" id="phone" fill="none">
    <path d="M10 10H18.5M18.5 10L16 7.5M18.5 10L16 12.5M8.5 2.5V7.5H5.5V12.5H8.5V17.5H6C4.5 17.5 3.5 16.5 3.5 15V5C3.5 3.5 4.5 2.5 6 2.5H8.5Z" stroke="black" stroke-linecap="round" stroke-linejoin="round"/>
  </svg>
  <svg viewBox="0 0 32 12" id="arrow-right" fill="none" preserveAspectRatio="none">
    <line y1="6" x2="26" y2="6" stroke="black" stroke-width="2"/>
    <path d="M32 6L25.25 11.1962L25.25 0.803848L32 6Z" fill="black"/>
  </svg>
</svg>
